X:89
T:Father Kelly's 2
R:Reel
O:Ireland
S:Music from Ireland Vol. 3
B:Music from Ireland Vol. 3
Z:Transcription, slight arr., chords:Mike Long
M:C|
L:1/8
K:G
"G"BddB "D"cBAF|"G"G2BG DGBG|"Am"A3B cBAG|"C"EAAG "D"ABcA|\
"G"d2Bd "D"cAFA|"G"G2BG DGBG|
"Am"A2AB "C"cdef|[1 "D"gedc "G"BGG2:|[2 "D"gedc "G"BGGB\
|:"G"dggf gfed|"Am"eaag ageg|
"D"fdad bdad|"C"gfge "D"dcBc|\
"G"dggf gfed|"Am"eaag agef|"C"g2ge dcBc|"D"dBcA "G"BGG2:|
